X:042 
T:Dan Sullivan's Fancy (hornpipe)
F:file ID: cre.5/042dan_s
B:CRE5.212 (Rogha DhÃÂÃÂÃÂÃÂ³naill Ui ShÃÂÃÂÃÂÃÂºilleabhÃÂÃÂÃÂÃÂ¡in)
N:This is an A-B-A tune with a contrasting second part. 
Key changes are indicated.
M:C|
Q:150
R:hornpipe
K:G
D2|G2DG BAGF|GBdf g3d|gdBd ecAG|FGAB cAFD|
"5"G2Ac BAGF|GBdf g3d|gdBd ecAF|G2 GF G2:|
P:Part B
K:D
FG|:"9"ABAG FAde|fedc d2cd|eA ~A2 gfed|eA ~A2 gfec|
"13"ABAG FAde|fedc defg|(3agf ge fdec|d2 fe dcBA:|
P:part A repeat - back to G
K:G
"17"G2DG BAGF|GBdf g3d|gdBd ecAG|FGAB cAFD|
"21"G2Ac BAGF|GBdf ~g3d|gdBd ecAF|"finish" G2GF G4-|G8|]

%%%

